contributed-vectors/owly.svg

<svg xmlns="http://www.w3.org/2000/svg" xml:space="preserve" style="fill-rule:evenodd;clip-rule:evenodd;stroke-linejoin:round;stroke-miterlimit:2" viewBox="0 0 192 192"><circle cx="88" cy="88" r="88" style="fill:url(#a)" transform="translate(8 8)"/><circle cx="68.211" cy="104.118" r="26.692" style="fill:#f9de81" transform="matrix(.34003 0 0 .34003 45.329 68.715)"/><circle cx="68.211" cy="104.118" r="26.692" style="fill:#f9de81" transform="matrix(.34003 0 0 .34003 100.284 68.715)"/><path d="m47.162 88.118-4.056-28.73L96 73.507l52.894-14.119-4.056 28.73a26.565 26.565 0 0 1 5.332 16c0 14.732-11.961 26.692-26.693 26.692A26.558 26.558 0 0 1 109 126.542L96 144.21l-13-17.668a26.558 26.558 0 0 1-14.477 4.268c-14.732 0-26.693-11.96-26.693-26.692 0-6 1.985-11.541 5.332-16Zm21.361.435c8.59 0 15.564 6.974 15.564 15.565 0 8.59-6.974 15.565-15.564 15.565-8.591 0-15.565-6.975-15.565-15.565 0-8.591 6.974-15.565 15.565-15.565Zm54.954 0c8.591 0 15.565 6.974 15.565 15.565 0 8.59-6.974 15.565-15.565 15.565-8.59 0-15.564-6.975-15.564-15.565 0-8.591 6.974-15.565 15.564-15.565Z" style="fill:#f9de81"/><defs><linearGradient id="a" x1="0" x2="1" y1="0" y2="0" gradientTransform="matrix(-192 -192 192 -192 184 184)" gradientUnits="userSpaceOnUse"><stop offset="0" style="stop-color:#4a4a4a;stop-opacity:1"/><stop offset=".62" style="stop-color:#595959;stop-opacity:1"/><stop offset=".82" style="stop-color:#7e7e7e;stop-opacity:1"/><stop offset="1" style="stop-color:#a6a6a6;stop-opacity:1"/></linearGradient></defs></svg>

<?xml version="1.0" encoding="UTF-8" standalone="no"?>
<!DOCTYPE svg PUBLIC "-//W3C//DTD SVG 1.1//EN" "http://www.w3.org/Graphics/SVG/1.1/DTD/svg11.dtd">
<svg width="100%" height="100%" viewBox="0 0 192 192" version="1.1" xmlns="http://www.w3.org/2000/svg" xmlns:xlink="http://www.w3.org/1999/xlink" xml:space="preserve" xmlns:serif="http://www.serif.com/" style="fill-rule:evenodd;clip-rule:evenodd;stroke-linejoin:round;stroke-miterlimit:2;">
    <g id="Layer1">
        <g transform="matrix(1,0,0,1,8,8)">
            <circle cx="88" cy="88" r="88" style="fill:url(#_Linear1);"/>
        </g>
        <g>
            <g transform="matrix(1,0,0,1,0.311735,0)">
                <g transform="matrix(0.340029,0,0,0.340029,45.0172,68.7148)">
                    <circle cx="68.211" cy="104.118" r="26.692" style="fill:rgb(249,222,129);"/>
                </g>
                <g transform="matrix(0.340029,0,0,0.340029,99.9719,68.7148)">
                    <circle cx="68.211" cy="104.118" r="26.692" style="fill:rgb(249,222,129);"/>
                </g>
            </g>
            <path d="M47.162,88.118L43.106,59.388L96,73.507L148.894,59.388L144.838,88.118C148.185,92.577 150.17,98.118 150.17,104.118C150.17,118.85 138.209,130.81 123.477,130.81C118.143,130.81 113.172,129.242 109,126.542L96,144.21L83,126.542C78.828,129.242 73.857,130.81 68.523,130.81C53.791,130.81 41.83,118.85 41.83,104.118C41.83,98.118 43.815,92.577 47.162,88.118ZM68.523,88.553C77.113,88.553 84.087,95.527 84.087,104.118C84.087,112.708 77.113,119.683 68.523,119.683C59.932,119.683 52.958,112.708 52.958,104.118C52.958,95.527 59.932,88.553 68.523,88.553ZM123.477,88.553C132.068,88.553 139.042,95.527 139.042,104.118C139.042,112.708 132.068,119.683 123.477,119.683C114.887,119.683 107.913,112.708 107.913,104.118C107.913,95.527 114.887,88.553 123.477,88.553Z" style="fill:rgb(249,222,129);"/>
        </g>
    </g>
    <defs>
        <linearGradient id="_Linear1" x1="0" y1="0" x2="1" y2="0" gradientUnits="userSpaceOnUse" gradientTransform="matrix(-192,-192,192,-192,184,184)"><stop offset="0" style="stop-color:rgb(74,74,74);stop-opacity:1"/><stop offset="0.62" style="stop-color:rgb(89,89,89);stop-opacity:1"/><stop offset="0.82" style="stop-color:rgb(126,126,126);stop-opacity:1"/><stop offset="1" style="stop-color:rgb(166,166,166);stop-opacity:1"/></linearGradient>
    </defs>
</svg>
